lib/svgs/th.svg

<?xml version="1.0" encoding="UTF-8"?>
<svg width="16px" height="16px" viewBox="0 0 16 16" version="1.1" xmlns="http://www.w3.org/2000/svg" xmlns:xlink="http://www.w3.org/1999/xlink">
    <!-- Generator: sketchtool 51.3 (57544) - http://www.bohemiancoding.com/sketch -->
    <title>app/th</title>
    <desc>Created with sketchtool.</desc>
    <defs></defs>
    <g id="Icons" stroke="none" stroke-width="1" fill="none" fill-rule="evenodd">
        <g id="Web" transform="translate(-483.000000, -504.000000)" fill="#000000">
            <g id="app/th" transform="translate(483.000000, 504.000000)">
                <path d="M4.97803377,8.88867556 L2.13329067,8.88867556 C0.9599808,8.88867556 0,9.84865636 0,11.0219662 L0,13.8667093 C0,15.0400192 0.9599808,16 2.13329067,16 L4.97803377,16 C6.15134364,16 7.11132444,15.0400192 7.11132444,13.8667093 L7.11132444,11.0219662 C7.11132444,9.84865636 6.15134364,8.88867556 4.97803377,8.88867556 M4.97803377,10.16865 C5.44095785,10.16865 5.83135004,10.5590422 5.83135004,11.0219662 L5.83135004,13.8667093 C5.83135004,14.3285668 5.44095785,14.7200256 4.97803377,14.7200256 L2.13329067,14.7200256 C1.67143324,14.7200256 1.2799744,14.3285668 1.2799744,13.8667093 L1.2799744,11.0219662 C1.2799744,10.5590422 1.67143324,10.16865 2.13329067,10.16865 L4.97803377,10.16865 M13.8709759,8.88867556 L11.0262328,8.88867556 C9.85292294,8.88867556 8.89294214,9.84865636 8.89294214,11.0219662 L8.89294214,13.8667093 C8.89294214,15.0400192 9.85292294,16 11.0262328,16 L13.8709759,16 C15.0442858,16 16.0042666,15.0400192 16.0042666,13.8667093 L16.0042666,11.0219662 C16.0042666,9.84865636 15.0442858,8.88867556 13.8709759,8.88867556 M13.8709759,10.16865 C14.3339,10.16865 14.7242922,10.5590422 14.7242922,11.0219662 L14.7242922,13.8667093 C14.7242922,14.3285668 14.3339,14.7200256 13.8709759,14.7200256 L11.0262328,14.7200256 C10.5643754,14.7200256 10.1729165,14.3285668 10.1729165,13.8667093 L10.1729165,11.0219662 C10.1729165,10.5590422 10.5643754,10.16865 11.0262328,10.16865 L13.8709759,10.16865 M4.9785671,0 L2.13382399,0 C0.960514123,0 0.000533322667,0.9599808 0.000533322667,2.13329067 L0.000533322667,4.97803377 C0.000533322667,6.15134364 0.960514123,7.11132444 2.13382399,7.11132444 L4.9785671,7.11132444 C6.15187696,7.11132444 7.11185776,6.15134364 7.11185776,4.97803377 L7.11185776,2.13329067 C7.11185776,0.9599808 6.15187696,0 4.9785671,0 M4.9785671,1.2799744 C5.44149117,1.2799744 5.83188336,1.67036659 5.83188336,2.13329067 L5.83188336,4.97803377 C5.83188336,5.4398912 5.44149117,5.83135004 4.9785671,5.83135004 L2.13382399,5.83135004 C1.67196656,5.83135004 1.28050772,5.4398912 1.28050772,4.97803377 L1.28050772,2.13329067 C1.28050772,1.67036659 1.67196656,1.2799744 2.13382399,1.2799744 L4.9785671,1.2799744 M13.8716159,0 L11.0268728,0 C9.85356293,0 8.89358213,0.9599808 8.89358213,2.13329067 L8.89358213,4.97803377 C8.89358213,6.15134364 9.85356293,7.11132444 11.0268728,7.11132444 L13.8716159,7.11132444 C15.0449258,7.11132444 16.0049066,6.15134364 16.0049066,4.97803377 L16.0049066,2.13329067 C16.0049066,0.9599808 15.0449258,0 13.8716159,0 M13.8716159,1.2799744 C14.33454,1.2799744 14.7249322,1.67036659 14.7249322,2.13329067 L14.7249322,4.97803377 C14.7249322,5.4398912 14.33454,5.83135004 13.8716159,5.83135004 L11.0268728,5.83135004 C10.5650154,5.83135004 10.1735565,5.4398912 10.1735565,4.97803377 L10.1735565,2.13329067 C10.1735565,1.67036659 10.5650154,1.2799744 11.0268728,1.2799744 L13.8716159,1.2799744" id="Shape"></path>
            </g>
        </g>
    </g>
</svg>

<svg xmlns="http://www.w3.org/2000/svg" viewBox="0 0 16 16">
    <path d="M4.978 8.889H2.133A2.14 2.14 0 0 0 0 11.022v2.845A2.14 2.14 0 0 0 2.133 16h2.845a2.14 2.14 0 0 0 2.133-2.133v-2.845a2.14 2.14 0 0 0-2.133-2.133m0 1.28c.463 0 .853.39.853.853v2.845c0 .462-.39.853-.853.853H2.133a.866.866 0 0 1-.853-.853v-2.845c0-.463.391-.853.853-.853h2.845m8.893-1.28h-2.845a2.14 2.14 0 0 0-2.133 2.133v2.845A2.14 2.14 0 0 0 11.026 16h2.845a2.14 2.14 0 0 0 2.133-2.133v-2.845a2.14 2.14 0 0 0-2.133-2.133m0 1.28c.463 0 .853.39.853.853v2.845c0 .462-.39.853-.853.853h-2.845a.866.866 0 0 1-.853-.853v-2.845c0-.463.391-.853.853-.853h2.845M4.979 0H2.134A2.14 2.14 0 0 0 0 2.133v2.845a2.14 2.14 0 0 0 2.133 2.133h2.845a2.14 2.14 0 0 0 2.133-2.133V2.133A2.14 2.14 0 0 0 4.979 0m0 1.28c.462 0 .853.39.853.853v2.845c0 .462-.39.853-.853.853H2.134a.866.866 0 0 1-.853-.853V2.133c0-.463.391-.853.853-.853h2.845M13.872 0h-2.845a2.14 2.14 0 0 0-2.133 2.133v2.845a2.14 2.14 0 0 0 2.133 2.133h2.845a2.14 2.14 0 0 0 2.133-2.133V2.133A2.14 2.14 0 0 0 13.872 0m0 1.28c.463 0 .853.39.853.853v2.845c0 .462-.39.853-.853.853h-2.845a.866.866 0 0 1-.853-.853V2.133c0-.463.391-.853.853-.853h2.845"/>
</svg>
